X: 8117
T: Contradiction, The
R: reel
M: 4/4
K: Amajor
~c3A BE3|cEAc dfed|dcBA GABc|1 defg afed:|2 defg a2ag||
aA A/A/A aAcA|GBEB GBEg|aA A/A/A aAcA|Bced cAAg|
aA A/A/A aAcA|GBEB GBE2|agfe fedc|degb a3z||
aec'e aec'e|bed'e bed'e|c'ee'e c'ee'e|dcBA EA3:|
eA3 fedc|decd B~E3|Ae3 fedc|defg afed:|

